setcps 0.16

d1
$ trunc 0.80
$ fast 8
$ whenmod 8 5 (#sustain "0.05")
$ slow 8
$ stutWith 8 (1/4) (|+ note "{12 0 0}%64")
$ every 1 (|-| (fast 2 $ note "{12 12 0 0}%1"))
$ note "{51 31 48 32 [67 79 67 67]/4 50 41 50 24 36*2 48 51 50}%64"
# s "supersaw"
# sustain "0.1"
# gain "0.3"
# pan (fast 64 $ rand)

d2
$ fast 2
$ sound "hardkick:1(3,8)"
# speed "0.95"
# gain "1.1"
# shape "0.85"
