setcps 2.15

d2
$ spaceOut [8,16,0.8,0.6,2,4]
$ off (fast (1/8) $ range 0 1 $ sine) (#pan "1")
$ fast (16/4)
$ every 4 (fast 2)
$ sound "hardkick:1(3,8)"
# shape "0.999"
# gain "1.95"
# speed "1.45"
# pan "0"

