setcps 0.85

d1
$ whenmod 8 6 (# cut "1")
$ spaceOut ([2,1.8] ++ (replicate 0 0.1))
$ fast 2
$ stutWith 5 (1/16) 
(
    (|+| note "17")
    . 
    (|-| gain "0.05")
)
$ note "{55 48 48 48 48 48 48 48 2*2 34*2 72*4 69}%16"
# s "supersaw" 
# sustain "{0.07}%16"
# gain "1"
# pan (fast 1315 $ rand)
