setcps 0.45

d1
$ whenmod 8 7 (# cut "1")
$ slow 4
$ stutWith 6 (1/192) 
(
    (|+| note "7")
    . 
    (|*| sustain "0.75")
)
$ note "{57 42 50 52 74 38 45}%32"
# s "supersaw" 
# sustain "{0.25 0.25 0.25 0.25 0.25 0.75}%16"
# gain "0.8"
# pan (fast (131) $ rand)
# detune (fast 1317 $ range 0.995 1.005 $ rand)
