setcps 0.3

d1
$ fast 4
$ spaceOut [1,1.2,1.45]
$ slow 4
$ stutWith 8 (1/8)
(
	(|+| gain "0.05")
	.
	(|*| sustain "0.95")
	.
	(|* note (slow 4 $ range 1 1.1 $ saw))
)
$ note "{48*4 51*3 19*4 53*2 55 60*2 72 70}%16"
# s "supersaw"
# sustain "{0.050 0.5 0.05 0.05 0.05 0.05 0.25}%16"
# gain "0.25"
