setcps 0.25

d1
$ fast 6
$ whenmod 7 0 (#cut "{1}%131")
$ spaceOut ([1,1,1,1] ++ (replicate 3 (1/2)))
$ slow (6*4)
$ stutWith 8 (1/(64*3))
(
	(|+| gain "0.00")
	.
	(|* sustain (choose [0.9,0.7,0.8]))
	.
	(|+| note "7")
)
$ note "{42*4 52*4 37*4 72*4 52*6 57*4}%16"
# s "supersaw"
# sustain "{0.250 0.5 0.25 0.1 0.75 0.25}%32"
# gain "0.65"
# pan (fast 131 $ range 0 1 $  rand)
# detune (fast 13111 $ range 0.995 1.005 $ rand)
