setcps 0.3

d1
$ fast 4 
$ whenmod 5 3 (#cut "1")
$ slow (8*4)
$ stutWith 16 (1/192) 
(
    (|+ note "12")
    . 
    (|* sustain (choose [0.99, 0.95]))
)
$ note "{57*6 42*4 57*4 52*6 74*4 38*4}%32"
# s "supersaw" 
# sustain "{0.03}%16"
# gain "1"
# pan (fast (131) $ square)
# detune (fast 1317 $ range 1.99 3.395 $ rand)
