setcps 0.075

d1
$ fast 6
$ whenmod 7 7 (#cut "{1}%131")
$ spaceOut ([1,1] ++ (replicate 2 (1/2)) ++ [2])
$ slow (6*4)
$ stutWith 8 (1/(3*("{64 96 32 48 16}%64")))
(
	(|-| gain "0.02")
	.
	(|* sustain (choose [0.9,0.7,0.8,0.4]))
	.
	(|+ note (fast 131111 $ range 6.95 7.09 $ rand))
)
$ note "{42*8 52*8 [37 30]*4 72*8 52*12 57*8}%16"
# s "supersaw"
# sustain "{0.50 1.5 0.5 0.25 0.75 0.75}%32"
# gain "0.5"
# pan (fast 131 $ range 0 1 $  rand)
# detune (fast 13111 $ range 0.995 1.005 $ rand)
