import Sound.Tidal.Guiot.Control

d2 $ cps "{1 1 1.5}%1"

d1
$ degradeBy 0.42
$ slow (8*4*4)
$ stutWith 7 (1/(4*3*8*8*4)) (
(|+ note "{7 12.1}%64")
.
(|* shaped "0.95")
.
(|* ringfreq "3")
.
(|* sus (choose [0.5,0.9,0.8]))
.
(|* gain "1.20")
)
$ note "{47*4 52*3 37*4 42*7 32*6 61*4 57*3}%128"
# s "supersaw"
# gain "10000.95"
# sus (fast 1333 $ choose ([0.67,0.35] ++ replicate 3 0.12))
# shaped "{0.90 1.0}%64"
# ringfreq (choose [1/128])
# ringmod "1"
# ringenv "00000.010"
# cut "1"



hush
