import Sound.Tidal.Guiot.Control

setcps 0.2

d1
$ fast 16
$ whenmod 5 3 (# cut "1")
$ spaceOut [1,1]
$ slow 16
$ slow (2)
$ stutWith 6 (1/(3*2*2*4))
(
(|+| note "7")
.
(|* gain "0.95")
.
(|* sus "0.95")
.
(|+ cut "1")
)
$ note "{55*6 60*4 53*2 62*4 60*4 67*3}%14"
# s "supersaw"
# gain "0.6"
# shaped "0.0"
# sus "{0.08 0.05 0.1}%16"
# ringmod "0.2"
# ringfreq "2.25"
# ringenv "0.04"
# detune (range 0.990 1.010 $ rand)
# pan (rand)
# cut "0"

