import Sound.Tidal.Guiot.Control

d1 $ fast 16 $ cps "0.2"

d2
$ stutWith 4 (1/(2*6*2))
(
(|+ note "{11}%31111")
.
(|* sus "0.95")
.
(|+ detune (fast 1.131 $ range (-0.004) 0.004 rand))
)
$ slow 3
$ note "{[69 61] 53*3 53*3}%16"
# s "tunesaw"
# tuning "19"
# sus "0.15"
# pan (rand)
# detune (fast 1.12 $ range 0.995 1.005 rand)
