import Sound.Tidal.Guiot.Control

import Sound.Tidal.Guiot.Functions

d1 $ cps "0.8"

d2
$ stutWith "{10 16 17}%8" (1/("{4 2}%8"*4*1))
((
(|+ note "{0.3 0.2 0.4}%41111")
.
(|* pitchenv "1.22")
.
(|* gain "0.99")
.
(|* sustain "1.05")
))
$ note "{237 290}%8"
# s "tunesharp"
# bandpf (choose [1, 2, 1, 4, 0.5])
# bandpq "4.2"
# gain "1"
# pitchenv "00.050"
# pitchval "2.00"
# sus "0.15"
# tuning "53"
# gain "1.5"
# upbound "500"
# lobound "050"




