import Sound.Tidal.Guiot.Control

d1 $ cps (slow 4 $ range 0.6 0.6 $ sine)


d2
$ stutWith 12 (1/16)
((
(|* notea "1.2")
.
(|* noteb "0.8")
.
(|* notec "0.9")
.
(|* noted "1.0")
))
$ notea "230"
# noteb "280"
# notec "310"
# noted "040"
# envab "0.05"
# envbc "0.1"
# envcd "0.03"
# s "balloon"
# tuning "53"
# sus "0.2"
# bandpfa "1"
# bandpqa "2"
# bandpfb "2"
# bandpqb "4"
# bandpfc "0.5"
# bandpqc "0.4"
# timescale "1"
# upbound "500"
# lobound "20"
# gain "0.10"
