import Sound.Tidal.Guiot.Control

d1 $ cps (slow 4 $ range 0.2 0.6 $ sine)


d2
$ stutWith 2 (1/16)
((
(|> pan (rand))
))
$ notea "230*2"
# noteb "252 283"
# notec "238"
# noted "243"
# envab "0.18"
# envbc "0.27"
# envcd "0.33"
# s "balloon"
# tuning "53"
# sus "1.0"
# bandpfa "4"
# bandpqa "8"
# bandpga "1.0"
# bandpfb "4"
# bandpqb "1"
# bandpgb "0.5"
# bandpfc "2.5"
# bandpqc "0.10"
# bandpgc "18"
# timescale "1.5"
# upbound "500"
# lobound "20"
# gain "0.10"
# pan (rand)

hush
