import Sound.Tidal.Guiot.Control

d1 $ fast 16 $ cps "0.13"

d2
$ fast 16
$ whenmod 5 3 (# cut "1")
$ spaceOut (replicate 2 1)
$ slow 16
$ stutWith 7 (1/(3*2*1*1))
(
(
(|+ note "{7.00 0 12.00 0.00}%32")
.
(|* gain "0.99")
.
(|* sus "0.97")
.
(|+ cut "0")
)
)
$ slow (2)
$ note "{55*6 60*4 52*2 62*4 60*4 67*3}%16"
# s "supersaw"
# gain "0.25"
# sustain "{0.08 0.05 0.15}%16"
# detune (range 0.990 1.010 $ rand)
# pan (rand)
# cut "0"
# upbound "127"
# lobound "45"
