setcps 0.3

let shift = 0
in
let super = (choose [-0.500, 1, 0.005])
in
d1
$ superimpose (
(|+ detune (super))
.
(superimpose 
(
(|+ detune (super)))
.
(|* gain "0.5")
)
)
$ every 1 (|+ note "200")
$ stutWith 5 (1/(3*2))
((
(|* gain "0.6")
.
(|+ note "31")
.
(|* envcurve "3")
))
$ slow 3
$ note (
(superchromatic53
(
(+ shift)
<$>
"{[0 4 12] [0 9 14]}%8")
))
# s "plush"
# gain "0.4"
# pan (rand)
# sustain "0.8"
# envcurve "4"
# pitchval "1.10"
# pitchenv "0.015"
# tuning "53"
# detune "1"
