setcps 0.4

d1
$ fast 1
$ stutWith 7 (1/3*2*2)
((
(|+ note "[31] 53")
.
(|* gain "0.75")
.
(|* envcurve "1.5")
))
$ every 1 (|+ note 210)
$ inside 2 (slowspread slow [2,3,4,5])
$ note
(
superchromatic53
"{[0 12 4] 0*2 [0 15 10] [0 16 12] [0 13 9]}%8"
)
# s "plush"
# tuning "53"
# gain "0.5"
# pitchval "{1 0.5 2}%1333"
# pitchenv "12.00"
# sustain "0.6"
# envcurve "4"
# pan (rand)
