import Sound.Tidal.Guiot.Functions

import Sound.Tidal.Guiot.Control

import Sound.Tidal.Guiot.Scales

d1

$ stutWith 4 (1/(3*4))
((
(|* gain "0.75")
.
(|+ note (slow 4 "<84 53 75>"))
.
(|* envcurve "3.00")
.
(|> pan (shrand 1))
))
$ fast 2
$ every 1 (|+ note (segment 1 $ choose [197,219,228,250]))
$ note (superchromatic53 "0 9 12 8")
# s "plush"
# tuning "53"
# sus "0.6"
# envcurve "3"
# gain "0.4"
# pan (rand)
# pitchenv "0.005"
# pitchval "4.85"
