setcps 0.4

let super = (choose [-0.500, 1, 0.005])
in
d1
$ superimpose (
(|+ detune (super))
.
(superimpose 
(
(|+ detune (super)))
.
(|* gain "0.5")
)
)
$ every 1 (|+ note "253")
$ stutWith 8 (1/(3*2))
((
(|* gain "0.8")
.
(|+ note "31 9 55")
.
(|* envcurve "2.0")
))
$ slow 3
$ note (shiftscale superchromatic53 0
"{[0 4 12] [0 9 14]}%8")
# s "plush"
# gain "0.4"
# pan (rand)
# sustain "0.3"
# envcurve "4"
# pitchval "1.10"
# pitchenv "0.015"
# tuning "53"
# detune "1"
