d1
$ stutWith 9 (1/(3*1*1*5))
((
(|+ note "{31 0 31 31 53}%16")
.
(|* gain "0.8")
.
(|* envcurve "1.0")
.
(|> pan (shrand 1))
))
$ every 1 (|+ note "180 231 282")
$ iter (slow 4 "<3 4>")
$ note
(shiftscale superchromatic53 4
"{0 5 9 12}%8")
# s "plush"
# gain "0.2"
# sus "2.6"
# envcurve "2"
# tuning "53"
# pitchval "1.20"
# pitchenv "02.0015"
# detune "{1 1 0.5}%8"
# pan (rand)
