setcps 0.8

d1 
$ slow 3
$ stack
[
stutWith 4 (1/(2*2))
(|* fmfreq "{0.5 0.25 1}%3111")
.
(|* fmamt "1.25")
.
(|* sus "0.9")
$ note "{250*2 303*3 259*5 265*3 272*2 281*2}%8"
# fmamt "2 4 16 4"
# fmfreq "2.0"
# sus "0.0"
,
stutWith 12 (1/(2))
(
(|* fmfreq "{0.5 1}%3111")
.
(|* fmamt "1.80")
.
(|* sus "0.4")
.
(|+ note "{31 53 14 9 0}%4111")
)
$ fast 1 $ note "144(21,32)"
# fmamt "{4 16 1 2 4}%7111"
# fmfreq "1.0"
# sus "0.6"
]
# gain "1.3"
# s "stringtest"
# tuning "53"

hush
