setcps 0.8

d1 
$ slow 3
$ stack
[
stutWith 4 (1/(2*2))
(|* fmfreq "{0.5 1 1}%3111")
.
(|* fmamt "1.5")
.
(|* sus "0.9")
$ note "{250*2 303*2 259*2 265*2 272*2 281*2}%8"
# fmamt "2 4 16 4"
# fmfreq "8.0"
# sus "0.1"
,
stutWith 12 (1/(2))
(
(|* fmfreq "{1 1}%3111")
.
(|* fmamt "1.25")
.
(|* sus "0.9")
.
(|+ note "{31 0 0 0 0}%4111")
)
$ fast 1 $ note "144(11,32)"
# fmamt "{4 16 1 2 4}%7111"
# fmfreq "2.0"
# sus "0.4"
]
# gain "1.3"
# s "stringtest"
# tuning "53"

hush
