setcps 0.8

d1 
$ slow 3
$ stutWith 08 (1/(2*3))
(|* fmfreq "{0.5 1 1}%3111")
.
(|* fmamt "1.0")
.
(|* sus "0.4")
$ note "{250*2 259*3 265*2 272*3 281*2}%8"
# gain "1.6"
# s "stringtest"
# sus "0.3"
# tuning "53"
# fmamt "32 4 16 4"
# fmfreq "2.0"

hush
