setcps 0.7

d1 
$ slow 2
$ degradeBy 0.0
$ inside 1 (stutWith 8 (1/(1))
(
(|* fmfreq "{1 1}%3111")
.
(|* fmamt "1.00")
.
(|* sus "0.95")
.
(|+ note "{31 53 14 9 0}%4111")
))
$ fast 1 
$ note "144(19,30)"
# fmamt "{4 16 64 128 1 2 4}%7111"
# fmfreq "{4.0 3 1}%2"
# sus "0.6"
# gain "0.8"
# pan (shrand 2)
# s "stringtest"
# tuning "53"
# combdel (slow 4 $ range 0.41 0.40 $ square)
# combtime "4.405"
# detune (range 0.995 1.005 $ shrand 6)
# envcurve "1"

hush
