setcps 0.4

let pat = "1(<13 19>,30,<0 2 5>)"
in
d1
$ fast 1
$ superimpose ((shiftr (6/1)) . (transdown 53) . (|* fmamt "8"))
$ transup 250
$ stack
[
note (struct pat $ "{31}%6")
,
note (struct (inv pat) $ 0)
]
# s "stringtest"
# fmamt "4"
# fmfreq "0.5"
# gain "0.8"
# stack
[
sus (struct pat $ "<0.4 0.3>")
,
sus (struct (inv pat) $ "<0.3 0.4>")
]
# envcurve "16"
# tuning 53
# stack
[
pan (struct pat $ 1)
,
pan (struct (inv pat) $ 0)
]


