wordmap :: (Num a, Eq a) => a -> a
wordmap 0 = 278
wordmap 1 = 283
wordmap 2 = 225
 
d2 
$ stutWith 8 (1/30)
(
(|+ note "{31 22 53 9 0}%10")
)
$ note (
(superchromatic53
(fmap wordmap
"[0(7,30), 1(11,30), 2(15,30)]")))
# s "stringtest"
# tuning "53"
# gain "0.5"
# sus "0.4"
# envcurve "8"
# pan (rand)
# fmamt "4"
# fmfreq "2"
