d1
$ stutWith 12 (0/20)
(
(|+ note "1400")
.
(|* fmamt "1.10")
.
(|* fmfreq "1.0")
.
(|> pan (shrand 4))
)
$ note (fast 20 $ fromList (take (2400*8) [1..]))
# s "stringtest"
# gain "0.3"
# sus "0.25"
# tuning "2400"
# fmamt "8"
# fmfreq "2"
# pan (shrand 3)
# envcurve "6"
# upbound (2400*8)
# lobound "1"

setcps 0.475
