setcps 0.35

d1
$ every 1 (|- note 53)
$ stutWith 10 (1/(2*2*2))
(|+ note "{31 0 9}%1333")
.
(|* fmamt "2")
.
(|* sus "0.6")
.
(|> pan (shrand 5))
$ inside (4*4) (spaceOut (replicate 2 1))
$ note "{250*4 228*3 199*4}%4"
# s "stringtest"
# fmfreq "0.5"
# fmamt "2"
# tuning "53"
# sus "0.25"
# envcurve "8"
# gain "0.3"
# pan (rand)
