setcps 0.25

d1
$ every 1 (|- note 53)
$ inside (4/1) (stutWith 10 (1/(3*2*2))
(|+ note "{31 0 13}%1333")
.
(|* fmamt "{1.5 1.1}%1")
.
(|* sus "0.65")
.
(|> pan (shrand 5))
)
$ inside (4*4) (spaceOut (replicate 2 1))
$ note "{250*4 228*3 199*4}%4"
# s "stringtest"
# fmfreq "0.5"
# fmamt "2"
# tuning "53"
# sus "0.25"
# envcurve "8"
# gain "0.3"
# pan (rand)
# detune (range 0.985 1.015 $ shrand 4)
