d1
$ stutWith 11 (23/20)
(
(|+ note "{2400 8 4 1400 1200}%05")
.
(|* fmamt "1.05")
.
(|* fmfreq "1.020")
.
(|> pan (shrand 4))
)
$ note (fast 20 $ fromList (take (2400*8) [1..]))
# s "stringtest"
# gain "0.3"
# sus "0.85"
# tuning "2400"
# fmamt "8"
# fmfreq "4"
# pan (shrand 3)
# envcurve "8"
# upbound (2400*8)
# lobound "1"

setcps 0.475
