d1 $ fast 16 $ cps 0.475

d2
$ stutWith 16 (21/20)
(
(|+ note "{2400 20 5 50 1400}%14")
.
(|* fmamt "1.05")
.
(|* fmfreq "1.0")
.
(|> pan (shrand 4))
)
$ note (fast 20 $ fromList (take (2400*8) [1..]))
# s "stringtest"
# gain "0.3"
# sus "0.4"
# tuning "2400"
# fmamt "3"
# fmfreq "2"
# pan (shrand 3)
# envcurve "6"
# upbound (2400*8)
# lobound "1"
