d1 $ fast 1 
$ stutWith 5 (1/3)
(
(|* sus "0.9")
.
(|+ note 7)
)
$ every 2 (fast (2/3))
$ fast (3/2)
$ stack
[
transdown 19 $ stack
[
up "36(<5 13 11 9>,16,3)"
,
up "48(<6 13 8>,16,1)"
,
up "43(<11 9 8 13 7>,16,0)"
,
up "41(<5 7>,16)" # gain 1.3
]
# s "bass3"
]
# pan ((shrand 3 + shrand 4) / 2)
# sus 0.3
# lpf (range 2000 16000 $ shrand 8)
# lpq 0.1


setcps 0.25

