d1 $ fast 1 
$ stutWith 5 (1/3)
(
(|* sus "0.9")
.
(|+ note 7)
)
$ every 2 (fast (2/3))
$ fast (3/2)
$ stack
[
transdown 19 $ stack
[
up "<38 38 41> (<13 14 13 11 9>,16,3)"
# gain 1.3
,
up "48(<6 13 8>,16,1)"
# gain 1.0
,
up "45(<11 11 13 9 8 13 7>,16,0)"
# gain 1.3
,
up "41(<5 7>,16)" 
# gain 1.0
]
# s "bass3"
]
# pan ((shrand 3 + shrand 4) / 2)
# sus 0.8
# lpf (range 2000 16000 $ shrand 8)
# lpq 0.6
# size 1.75


d2 $ room (segment "{8 12 8 6 16}%1" $ range 0 0.99 $ rand)

setcps 0.25
