let matrix = (jmat2 ((3/2), 11, 0) ((7/4), 0, 0))
in
d1
$ (|* note 075)
$ note (jtoScale' (2) matrix (segment 1 (irand ((length matrix) * 4))))
# s "plush"
# sus 10.7
# envcurve 0.5
# gain 0.60
# pan (shrand 2)
# tuning 0
# attpercent 0.4

setcps 0.35
