let matrix = (jmat2 ((3/2), 2, 1) ((7/4), 1, 1))
in
d1
$ (|* note 075)
$ note (jtoScale' (2) matrix (segment 1 (irand ((length matrix) * 4))))
# s "plush"
# sus 10.7
# envcurve 0.5
# gain 0.65
# pan (shrand 2)
# tuning 0
# attpercent 0.2
# detune (range 0.998 1.002 $ shrand 3)

setcps 0.35
