let panpat = (fast 1311 $ square)
in
d1
$ stutWith 13 (1/32)
(
(|+ up 7)
.
(degBy 0.4) 
)
$ fast 11
$ cat  (scanl fastAppend (up "0 12") (replicate 12 (up "{3 24 7}%8")))
# sound "gabbalouder"
# cut ((+1) $ fmap (round) $ panpat)
# pan panpat
