let panpat = (fast ((rand) * 8) $ square)
in
d1
$ stutWith 14 (1/16)
(
(|+ up 12)
.
(degBy 0.1) 
.
(slow 2)
)
$ fast 1
$ cat  (scanl fastAppend (up "0 12") (replicate 12 (up "{3 24 7}%8")))
# sound "gabbalouder"
# cut ((+1) $ fmap (round) $ panpat)
# pan panpat
