let panpat = (fast ((rand) * 8) $ square)
in
d1
$ stutWith 14 (0/32)
(
(|+ note "{31 0 53}%8")
.
(degBy 0.1) 
.
(slow 2)
)
$ transup 180
$ fast 4
$ cat  (scanl fastAppend (note "0 53") (replicate 12 (note "{9 106 31}%8")))
# sound "stringtest"
# pan panpat
# fmfreq (1/1)
# fmamt (6/1)
# sus 0.05
# envcurve 1
# tuning 53
# upbound 450
# lobound 120
