let panpat = (fast ((rand) * 16) $ square)
in
d1
$ transup (slow 8 $ "<180 171>")
$ stutWith 14 (1/32)
(
(|+ note "{31 53}%2")
.
(degBy 0.1) 
.
(slow 2)
)
$ fast 4
$ cat (scanl fastAppend (note "0 53") (replicate 12 (note "{9 106 31}%8")))
# sound "stringtest"
# pan panpat
# fmfreq (1/2)
# fmamt (6/1)
# sus 0.75
# envcurve 2
# tuning 53
# upbound 380
# lobound 120
# gain 0.8
