d1 $ fast 16 $ cps 0.475

d2
$ stutWith 14 (21/20)
(
(|+ note "{2400 8 4 1400 1200}%14")
.
(|* fmamt "1.00")
.
(|* fmfreq "1.001")
.
(|> pan (shrand 4))
)
$ note (fast 19 $ fromList (take (2400*8) [1..]))
# s "stringtest"
# gain "0.8"
# sus "0.25"
# tuning "2400"
# fmamt "10"
# fmfreq "4"
# pan (shrand 3)
# envcurve "10"
# upbound (2400*8)
# lobound "1"
