d1 $ fast 16 $ cps 0.475

d2
$ stutWith 20 (21/20)
(
(|+ note "{2400 20 1400 8 4 0}%19")
.
(|* fmamt "1.03")
.
(|* fmfreq "1.000")
.
(|> pan (shrand 4))
)
$ note (fast (2000/100) $ fromList (take (2400*8) [1..]))
# s "stringtest"
# gain "0.95"
# sus "0.50"
# tuning "2400"
# fmamt "4"
# fmfreq "2"
# pan (shrand 3)
# envcurve "3"
# upbound (2400*8)
# lobound (2400*0.0)
