d1  
$ stutWith 6 (1.003/2)
(
(|+ note 31)
.
(|* envcurve 1.2)
.
(|* fmamt 1.05)
)
$ transup 200
$ note (fast 20 $ fromList (mos 7 31 53))
# s "stringtest"
# envcurve "6"
# sus "0.2"
# gain 1.2
# tuning 53
# fmfreq 1.0
# fmamt 3
