setcps 0.8

let mosnotes = 12
    mospat = map fromIntegral (mos mosnotes 9 53)
in
d1  
$ stutWith 11 (mosnotes/40)
(
(|+ note "{0}%20")
.
(|* sus 0.95)
.
(|* fmamt 1.25)
.
(|+ pan (2/16))
)
$ transup 220
$ note (fast 20 $ fromList mospat)
# s "stringtest"
# envcurve "8"
# sus "0.15"
# gain 1.2
# tuning 53
# fmfreq 0.25
# fmamt 2.0
# upbound 400
# lobound 150
# pan (fast 10 $ square)
