d1  
$ stutWith 2 (1/2)
(|+ note 22)
$ transup 200
$ note (fast 20 $ fromList $ map fromIntegral (mos 5 31 53))
# s "stringtest"
# envcurve "4"
# sus "0.2"
# gain 1.2
# tuning 53
# fmfreq 0.5
# fmamt 3
