setcps 0.4

let mosnotes = 5
    mospat = (mos mosnotes 31 53)
in
d1  
$ arpeggiate
$ inside (1/1) ( stutWith 6 ((fmap (*mosnotes) (fromList $ [0,0,1,2]))/20)
(
(|+ note "{106 31 53}%20")
.
(|* sus 0.95)
.
(|* fmamt 1.15)
.
(|+ pan (1/4))
))
$ transup 200
$ note (fast 10 $ fromList mospat)
# s "stringtest"
# envcurve "8"
# sus "0.15"
# gain 1.2
# tuning 53
# fmfreq 0.25
# fmamt 2.0
# upbound 410
# lobound (410-212)
# pan (fast 10 $ square)

