setcps 0.6

let mosnotes = 5
    moscale = (mos mosnotes 31 53)
in
d1  
$ transup 200
$ inside (11/1) (spaceOut [1,1,1,1])
$ note (toScale' 53 (sort moscale) (stutWith 4 ("<0 1>"/20) (+ 3) (segment 20 $ irand (mosnotes*3))))
# s "stringtest"
# envcurve "7"
# sus "0.20"
# gain 1.2
# tuning 53
# fmfreq 0.25
# fmamt 2.0
# upbound 410
# lobound (410-212)
# pan (fast 10 $ square)
