setcps 0.3

let linterval = 41
    lhits = 43	
    lsteps = 128	
    rinterval = 71
    rhits = 41
    rsteps = 128
in
d1 $ arpeggiate $ stutWith 4 (1/20) ((|* speed 1.9) . (|* gain 0.925) . (|+ n 1))
$ stack [ 
sound (struct (fast 20 $ makeStruct lsteps (mos lhits linterval lsteps)) "gabbalouder:1") # pan 0 
,
sound  (struct (fast 20 $ makeStruct rsteps (mos rhits rinterval rsteps)) "gabbalouder:1") # pan 1 
]
# rel 0.6
# shape 0.89
# gain 1.2
