let mospat = (mos 13 22 81)
in
d1  
$ stutWith 8 (1.000/2)
(
(|+ note 45)
.
(|* envcurve 1.4)
.
(|* fmamt 1.00)
)
$ transup 280
$ note (fast 13 $ fromList mospat)
# s "stringtest"
# envcurve "6"
# sus "0.2"
# gain 1.2
# tuning 81
# fmfreq 0.5
# fmamt 2.5
