d1 $ cps (segment 32 $ fast (1/8) $ range 1.5 1.5 $ tri)

d2
$ fast 2
$ degradeBy 0.00
$ inside (1/8) (spaceOut ([0.2,0.25..1.7]))
$ inside 2 (every 2 (#gain (fmap (8^^) ((irand 5) + 1))))
$ off (fast (432455/13434) $ range 0 0.034 $ sine) (#pan "1")
$ fast (2/4)
$ slow 2
$ inside 2 (every 4 (fast 4))
$ sound "{hardkick:8(<3 5>,8) hh(<11 13 9>, 32) hardkick:3(<5 3>,8)}%4"
# gain 1.5
# shape "{0.8 0.95 0.2 0.6 0.7}%5"
# speed (choose [1.05, 0.7, 4, 16])
# pan "0"

hush
