setcps 0.8

let mosnotes = (3)
    mospat = (mos mosnotes 22 53)
in
d1  
$ stutWith 7 (mosnotes/20)
(
(|+ note "{0.5 31 53}%20")
.
(|* sus 0.95)
.
(|* fmamt 1.15)
.
(|+ pan (1/16))
)
$ transup 220
$ note (fast 20 $ fromList mospat)
# s "stringtest"
# envcurve "8"
# sus "0.15"
# gain 1.2
# tuning 53
# fmfreq 0.25
# fmamt 2.0
# upbound 400
# lobound 150
# pan (fast 10 $ square)
