setcps 0.65

(
d1
$ stutWith 2 (1/2) (|+ note 31)
$ superLayer (fmap (/15) irand 31) "32 16"
$ note "300*16"
# s "stringtest"
# tuning "53"
# sus "0.2"
# envcurve 6
# gain 0.9
# pan 0 
)
>>
(
d2
$ stutWith 2 (1/2) (|+ note 31)
$ superLayer (fmap (/15) irand 30) "16 32"
$ note "250*16"
# s "stringtest"
# tuning "53"
# sus "0.2"
# envcurve 6
# gain 0.9
# pan 1
)
