setcps 0.05
>>
(
d1
$ superLayer (fmap (/2) irand 61) "8 16"
$ arpeggiate
$ stutWith 9 (1/32) (|+ note 31)
$ note "197*8"
# s "stringtest"
# tuning "53"
# sus "0.8"
# envcurve 2
# gain 0.9
# pan 0 
# pitchval 8.00
# pitchenv 0.15
)
>>
(
d2
$ superLayer (fmap (/2) irand 60) "<16 24 8>"
$ arpeggiate
$ stutWith 6 (1/8) (|+ note 31)
$ note "250*16"
# s "stringtest"
# tuning "53"
# sus "0.8"
# envcurve 2
# gain 0.9
# pan 1
# pitchval 8.00
# pitchenv 0.15
)
