let n = 3
    pat = fast n $ fromList $ tribonacci 15
in
d1
$ ply (choose [3,2,1,8])
$ superLayer 7 8
$ stutWith 6 (2/(n*8)) ((|* speed 1) . (|* gain 0.99))
$ stack
[
struct (fmap (== 0) pat) $ sound "gabba"
,
struct (fmap (== 1) pat) $ sound "bd" # shape 0.4
,
struct (fmap (== 2) pat) $ sound "sn" # shape 0.5 # speed 1
]
# pan (fast n $ fmap fromIntegral $ fmap truthInt $ thuemorsepat 20)
# gain 1.3
