let allchords = [major, minor, major7, dom7, minor7, aug, dim, dim7, one, five, plus, sharp5, msharp5, sus2, sus4, six, m6, sevenSus2, sevenSus4, m7flat5, sevenSharp5, m7sharp5, nine, m9, m7sharp9, maj9, nineSus4, sixby9, m6by9, sevenFlat9, m7flat9, sevenFlat10, nineSharp5, m9sharp5, sevenSharp5flat9, m7sharp5flat9, eleven, m11, maj11, elevenSharp, m11sharp, thirteen, m13]

d1 $ superLayer 12.04 12 $ transup "<60 65 55>/2" $ note ( slow 8 $ listToPat $ concat allchords) #  sound "stringtest" # gain 1.3 # attpercent 0.30 # fmfreq 1.30 # fmamt 1.5 # upbound "120" #lobound (120-(12*9)) # pitchval (2 ** (3/12)) # pitchenv 0.25 # envcurve 8 # sus 0.25

import Sound.Tidal.Chords
