d1
$ stutWith 8 0 (jtransup (choose [7/4, 3/2, 11/8, 2, 2]) . slow (3/2) . (|* sus (7/4)) . (|* gain 0.9))
$ shuffle 8
$ note (fast 8 $ fromList (map (100*) [1, (5/4), (12/11), (4/3), (11/8), (33/32), (3/2)]))
# s "stringtest"
# tuning 0
# gain "<1.3 1.05!7>*8" 
# sus 0.5
# fmamt 1
# fmfreq 1.0
# pan rand
# attpercent 0.8

setcps 0.575
