d1
$ ply 1
$ stutWith 24 (1/64)
(
(|+ note (choose [0,12,0]))
-- .
-- (|* sus 0.75)
.
(|* noise 0.97)
)
$ note "<21 20>*8"
# tuning 12
# s "febsaw"
# lopfstart (choose [2,1,4,16,32,8])
# lopfend (choose [8,4,16,12])
# lopq 0.20
# sus 0.08
# attpercent 0.3
# envcurve 1
# gain 0.7
# noise (rand)
# upbound "80"
# lobound (80 - (12*4))
# pan (shrand 5)

setcps 0.55

hush
