d1
$ plyWith 2 (transup 100)
$ superLayer 6 (-1/ fmap (/12) "<4 8 2 5 1>")
$ transdown 10
$ stutWith 6 (1/"<12 8 10 16>")
(
(transup 31)
.
(|* gain 0.98)
.
(|* sus 0.7)
)
$ fast 1
$ note "200@h 244@h 266@e 222 253@h"
# s "stringtest"
# tuning "53"
# sus "0.5"
# envcurve "3"
# gain 1.0
# tanhdist 06.5

setcps 0.35

