d1
-- $ plyWith 1 (transdown 0.25)
$ superLayer 8 (-1/"<4 8 2 5 1>")
$ transdown 10
$ stutWith 5 (1/12)
(
(transup 31)
.
(|* gain 0.97)
)
$ fast 2
$ note "200@h 244@s 266@q 222@h 253@e"
# s "stringtest"
# tuning "53"
# sus "0.8"
# envcurve "1"
# tanhdist 1.5
