d1
$ transdown 0
$ plyWith 1 (transdown 2)
$ stutWith 16 (1/16)
(
transup 9
)
$ superLayer 2 (-(53/2))
$ struct "1(11,32)" 
$ note "<300 313 322 331>"
# s "stringtest"
# tuning "53"
# sus "0.85"
# envcurve 4
# fmamt "10!7 1"
# fmfreq 1

d2 $ cps "<0.2 0.3>*4"
