d1
$ plyWith 4 (transdown 13)
$ stutWith 12 (1/16)
(
transup 9
.
(|* sus 0.9625)
)
$ transdown "<0 53>*3"
$ superLayer 2 (-(53/2))
$ struct "1(11,32)" 
$ note "<300 194 313 322 331>"
# s "stringtest"
# tuning "53"
# sus "0.75"
# envcurve 16
# fmamt "<10!7 2 5 1>*11"
# fmfreq 0.5

setcps 0.10
