d1
$ plyWith 1 (transdown 0.5)
$ superLayer 12 (1/ fmap (/12) "<4 8 2 5 1>")
$ transdown 10
$ stutWith 6 (1/"<12 8 10 16>")
(
(transup 31)
.
(|* gain 0.98)
)
$ fast 2
$ note "200@h 244@h 266 222 253@h"
# s "stringtest"
# tuning "53"
# sus "0.2"
# envcurve "1"
# gain 1.0
# tanhdist 07.5

setcps 0.35

