d1
$ plyWith 5 (transdown 9)
$ superLayer 5 (-1/ fmap (/16) "<4 8 2 5 1>")
$ transdown 00
$ stutWith 6 (1/"<12 8 10 16>")
(
(transup 31)
.
(|* gain 0.98)
.
(|* sus 0.95)
)
$ fast 1
$ note "200@e 244 266@h 222@t 253@h"
# s "stringtest"
# tuning "53"
# sus "0.4"
# envcurve "6"
# gain 1.0
# tanhdist 08.5

setcps 0.30

hush
